outputs/icons/communication/phone_in_talk_sharp.svg

<svg width="1200" height="1200" viewBox="0 0 1200 1200" fill="none" xmlns="http://www.w3.org/2000/svg"><g clip-path="url(#clip0_133_12)"><path d="M949.995 600H1049.995C1049.995 351.5 848.495 150 599.995 150V250C793.495 250 949.995 406.5 949.995 600ZM749.995 600H849.995C849.995 462 737.995 350 599.995 350V450C682.995 450 749.995 517 749.995 600ZM660.495 868.5C518.995 796.5 402.995 681 330.995 539L457.495 412.5L426.995 150H151.495C122.495 659 540.995 1077.5 1049.995 1048.5V773L786.495 742.5L660.495 868.5Z" fill="black"/></g><defs><clipPath id="clip0_133_12"><path width="24" fill="white" d="M0 0H1200V1200H0V0z"/></clipPath></defs></svg>

<svg xmlns="http://www.w3.org/2000/svg" width="1200" height="1200" fill="none"><g clip-path="url(#a)"><path fill="#000" d="M949.995 600h100c0-248.5-201.5-450-450-450v100c193.5 0 350 156.5 350 350m-200 0h100c0-138-112-250-250-250v100c83 0 150 67 150 150m-89.5 268.5c-141.5-72-257.5-187.5-329.5-329.5l126.5-126.5-30.5-262.5h-275.5c-29 509 389.5 927.5 898.5 898.5V773l-263.5-30.5z"/></g><defs><clipPath id="a"><path fill="#fff" d="M0 0h1200v1200H0z"/></clipPath></defs></svg>
